X:1
T:Title
%%score { 1 | ( 2 3 ) }
L:1/8
M:2/4
K:Bb
V:1 treble nm="Grand Piano"
V:2 bass 
V:3 bass 
V:1
 z2 z[Q:1/4=84] [DF] | [DB][DB] [DB]>[DF] | [EG] [DF]2 [FB] | AB cd | e3 d/c/ | [Fd][Fd] [Fc][FB] | %6
 [Ec] [EG]2 [GB] | [FA][FA] [=EB][EG] | F3 F | FG AB | c2 BA | B>B [GB][Gc] | [^Fd]3 [Fd] | %13
 [Ge]>[Ge] [Fc][Fc] | [Fd]2 [FB][Fd] | c>c BA |[M:3/8] [DB]3 |[M:1/8] [DF] | %18
[M:2/4] [Fd]>[Fd] [Fd]>[Ec] | [DB][DF] FF | [Fe]2 [Fd]2 | c3 d/e/ | ff [Fd][F_AB] | %23
 [GB][GB] [FA]G | F2 c2 |[M:3/8] [DB]3 |] %26
V:2
 z2 z [B,,B,] | [B,,F,][B,,F,] [B,,F,]>[B,,B,] | [E,B,] [B,,B,]2 [D,B,] | %3
 [F,CF][F,DF] [F,A,F][F,B,F] | [F,CF]3 [F,F]/-[F,A,F]/ | [B,,B,][B,,B,] [C,A,][D,B,] | %6
 [E,G,] [E,B,]2 [E,B,] | [C,C][C,C] [C,G,][C,B,] | [F,A,]3 [F,A,] | [F,A,][F,B,F] [F,CF][F,DF] | %10
 [F,EF]2 [F,DF][F,CF] | [G,B,D]>[G,B,D] [E,G,][E,G,] | [D,A,]3 [D,A,] | [C,C]>[C,C] [F,A,][F,A,] | %14
 [B,,B,]2 [D,F,][B,,F,] | [E,G,E]>[E,G,E] [F,D][F,C] |[M:3/8] [B,,F,]3 |[M:1/8] [B,,B,] | %18
[M:2/4] [B,,B,]>[B,,B,] [B,,B,]>[B,,F,] | [B,,F,][B,,B,] [D,B,][D,B,] | [C,A,]2 [B,,B,]2 | %21
 z2 z [B,F] | [B,DF][B,DF][K:bass] [B,,B,]D, | [E,E][E,E] [E,B,][E,B,E] | [F,B,D]2 [F,A,E]2 | %25
[M:3/8] [B,,B,]3 |] %26
V:3
 x4 | x4 | x4 | x4 | z2 z .B, | x4 | x4 | x4 | x4 | x4 | x4 | x4 | x4 | x4 | x4 | x4 |[M:3/8] x3 | %17
[M:1/8] x |[M:2/4] x4 | x4 | x4 | [F,A,F]3 z/ C/ | x2[K:bass] x2 | x4 | x4 |[M:3/8] x3 |] %26

